Flat-Remix-Dark/apps/scalable/4kvideodownloader.svg

<svg xmlns="http://www.w3.org/2000/svg" width="384pt" height="384pt" version="1.1" viewBox="0 0 384 384"> <g> <path style="fill:rgb(4.705%,63.137%,36.862%);fill-opacity:0.99607801" d="m 219.12891,74.5 c -35.71875,0 -67.58204,21.039062 -81.88282,53.78516 -24.52734,3.13671 -45.328121,18.79687 -55.007809,41.73437 C 45.378906,171.54687 15.75,202.52344 15.75,239.76953 15.75,278.21875 46.652344,309.5 84.929688,309.5 H 299.07031 c 38.28125,0 69.17969,-31.28125 69.17969,-69.73047 0,-35.10937 -25.35547,-64.28516 -59.65234,-69.01562 0.15625,-2.11329 0.24609,-4.26954 0.24609,-6.3711 C 308.84375,114.75 268.51953,74.5 219.12891,74.5 Z"/> <path style="fill:rgb(28.627%,20.784%,14.509%);fill-opacity:0.313725" d="M 308.695312 161.460938 C 308.65625 162.328125 308.664062 163.195312 308.597656 164.050781 C 308.675781 164.058594 308.75 164.09375 308.828125 164.101562 C 308.824219 163.210938 308.726562 162.34375 308.695312 161.460938 Z M 368.085938 236.226562 C 366.425781 273.195312 336.285156 302.777344 299.074219 302.777344 L 84.925781 302.777344 C 47.769531 302.777344 17.648438 273.273438 15.914062 236.375 C 15.855469 237.503906 15.75 238.625 15.75 239.765625 C 15.75 278.21875 46.648438 309.5 84.925781 309.5 L 299.074219 309.5 C 337.351562 309.5 368.25 278.21875 368.25 239.765625 C 368.25 238.574219 368.144531 237.40625 368.085938 236.226562 Z M 368.085938 236.226562"/> </g> <path style="fill:rgb(100.000%,100.000%,100.000%);paint-order:markers stroke fill" d="M 237.24414 225.24023 L 236.88086 264.00977 L 236.51562 302.79102 L 218.22461 303.15625 C 206.35481 303.39584 199.93164 303.79168 199.93164 304.28125 C 199.93164 305.75001 266.48894 379.2142 267.66602 379.05273 C 268.30142 378.95897 283.89062 362.14519 302.3125 341.68164 C 321.77603 320.06707 335.53125 304.20898 335.15625 303.83398 C 334.79686 303.47981 326.45248 303.09957 316.60352 302.99023 L 298.70312 302.79102 L 298.33789 264.00977 L 297.97461 225.24023 L 237.24414 225.24023 z" transform="scale(0.75)"/> </svg>

<svg width="512" height="512" version="1.1" viewBox="0 0 384 384" xmlns="http://www.w3.org/2000/svg"><path d="m219.13 74.5c-35.719 0-67.582 21.039-81.883 53.785-24.527 3.1367-45.328 18.797-55.008 41.734-36.859 1.5273-66.488 32.504-66.488 69.75 0 38.449 30.902 69.73 69.18 69.73h214.14c38.281 0 69.18-31.281 69.18-69.73 0-35.109-25.355-64.285-59.652-69.016 0.15625-2.1133 0.24609-4.2695 0.24609-6.3711 0-49.633-40.324-89.883-89.715-89.883z" fill="#0aa15c" fill-opacity=".99608"/><path d="m308.7 161.46c-0.0391 0.86718-0.0312 1.7344-0.0976 2.5898 0.0781 8e-3 0.15234 0.043 0.23046 0.0508-4e-3 -0.89062-0.10156-1.7578-0.13281-2.6406zm59.391 74.766c-1.6602 36.969-31.801 66.551-69.012 66.551h-214.15c-37.156 0-67.277-29.504-69.012-66.402-0.05859 1.1289-0.16406 2.25-0.16406 3.3906 0 38.453 30.898 69.734 69.176 69.734h214.15c38.277 0 69.176-31.281 69.176-69.734 0-1.1914-0.10547-2.3594-0.16406-3.5391z" fill="#473323" fill-opacity=".31373"/><path d="m177.93 176.43-0.27246 29.077-0.27393 29.086-13.718 0.27392c-8.9024 0.17969-13.72 0.47658-13.72 0.84375 0 1.1016 49.918 56.2 50.801 56.079 0.47655-0.0704 12.168-12.681 25.985-28.028 14.598-16.211 24.914-28.104 24.633-28.386-0.26955-0.26563-6.5278-0.55081-13.915-0.63281l-13.425-0.14941-0.27393-29.086-0.27246-29.077z" opacity=".3" stroke-width=".75" style="paint-order:markers stroke fill"/><path transform="scale(.75)" d="m237.24 225.24-0.36328 38.77-0.36524 38.781-18.291 0.36523c-11.87 0.23959-18.293 0.63543-18.293 1.125 0 1.4688 66.557 74.933 67.734 74.771 0.6354-0.0938 16.225-16.908 34.646-37.371 19.464-21.615 33.219-37.473 32.844-37.848-0.35939-0.35417-8.7038-0.73441-18.553-0.84375l-17.9-0.19921-0.36523-38.781-0.36328-38.77z" fill="#fff" style="paint-order:markers stroke fill"/><path transform="scale(.75)" d="m292.17 99.334c-47.625 0-90.11 28.051-109.18 71.713-32.703 4.1823-60.438 25.063-73.344 55.646-49.146 2.0364-88.65 43.339-88.65 93 0 1.6913 0.046198 3.3716 0.13477 5.041 2.5246-47.424 41.015-86.073 88.516-88.041 12.906-30.583 40.641-51.464 73.344-55.646 19.068-43.661 61.553-71.713 109.18-71.713 64.125 0 116.78 50.888 119.5 114.66 0.0715-1.614 0.11914-3.2256 0.11914-4.8164 0-66.177-53.765-119.84-119.62-119.84zm119.6 128.39c0.00579 0.48495 0.01758 0.96875 0.01758 1.4551 0 2.8021-0.11981 5.6764-0.32813 8.4942 44.109 6.0839 77.117 42.496 79.4 87.08 0.08918-1.6752 0.13672-3.3613 0.13672-5.0586 0-46.706-33.656-85.529-79.227-91.971z" fill="#fff" fill-opacity=".99608" opacity=".3" stroke-width="1.3333"/></svg>
